svg/fluentui-system-icons/ic_fluent_gavel_24_filled.svg

<svg width="24" height="24" viewBox="0 0 24 24" fill="none" xmlns="http://www.w3.org/2000/svg">
<path d="M10.7285 2.71181C11.7062 1.73417 13.326 1.86126 14.1392 2.97941L14.4596 3.41994L7.98644 9.89312L7.60653 9.63984C6.42513 8.85225 6.25962 7.18072 7.26361 6.17674L10.7285 2.71181ZM9.25923 10.7416L11.8207 12.4493C11.9075 12.5072 11.9813 12.5826 12.0374 12.6706L13.2708 14.6088L19.2825 8.59702L17.1328 7.03362C17.0694 6.98747 17.0135 6.93165 16.9674 6.86819L15.3528 4.64808L9.25923 10.7416ZM14.3635 16.3259L14.0957 15.9052L20.5106 9.49021L21.0216 9.86182C22.1397 10.675 22.2668 12.2948 21.2892 13.2725L17.8527 16.709C16.8349 17.7268 15.1363 17.5403 14.3635 16.3259ZM9.34097 12.2986L3.26816 18.257C2.56987 18.9421 2.56458 20.0653 3.25638 20.7569C3.94347 21.4439 5.05734 21.4438 5.74436 20.7568L11.8291 14.672L11.0392 13.4308L9.34097 12.2986ZM14.75 19.0009C14.3358 19.0009 14 19.3366 14 19.7509C14 20.1651 14.3358 20.5009 14.75 20.5009H12.75C12.3358 20.5009 12 20.8366 12 21.2509C12 21.6651 12.3358 22.0009 12.75 22.0009H21.25C21.6642 22.0009 22 21.6651 22 21.2509C22 20.8366 21.6642 20.5009 21.25 20.5009H19.25C19.6642 20.5009 20 20.1651 20 19.7509C20 19.3366 19.6642 19.0009 19.25 19.0009H14.75Z" fill="#212121"/>
</svg>

<svg xmlns="http://www.w3.org/2000/svg" width="24" height="24"><path d="M10.729 2.712a2.25 2.25 0 0 1 3.41.267l.32.44-6.473 6.474-.38-.253a2.25 2.25 0 0 1-.342-3.463l3.465-3.465Zm-1.47 8.03 2.562 1.707a.75.75 0 0 1 .216.222l1.234 1.938 6.011-6.012-2.15-1.563a.75.75 0 0 1-.165-.166l-1.614-2.22-6.094 6.094Zm5.104 5.584-.267-.42L20.51 9.49l.51.372a2.25 2.25 0 0 1 .268 3.41l-3.436 3.437a2.25 2.25 0 0 1-3.49-.383Zm-5.022-4.027-6.073 5.958a1.76 1.76 0 1 0 2.476 2.5l6.085-6.085-.79-1.241-1.698-1.132ZM14.75 19a.75.75 0 1 0 0 1.5h-2a.75.75 0 1 0 0 1.5h8.5a.75.75 0 0 0 0-1.5h-2a.75.75 0 0 0 0-1.5h-4.5Z"/></svg>
